public/avatar/item1/60.svg

<svg xmlns:xlink="http://www.w3.org/1999/xlink" height="65.4" width="80.15" xmlns="http://www.w3.org/2000/svg"><use height="16.3" transform="translate(14.3 32.6)" width="9.5" xlink:href="#a"/><defs><g id="a"><path d="m-10.55 26.1 1.65-1.7q.35 6.85 0 8.7-.35 1.8-3.85 2l-1.3-2.2q2.65 1.5 3-1.15l.5-5.65" fill="#030001" fill-rule="evenodd" transform="translate(17.3 -18.8)"/><path d="M-14.8 19.15q1.1-.55 3.45 1t2.95 3.25q1.05 3.05-2.65 3.65-.9.15-1.25-1.25-.55-2.05-.85-2.5-.5-.7-1.85-.65l-1.75.1q-.3-.05.3-2 .35-.95 1.65-1.6" fill="#383f94" fill-rule="evenodd" transform="translate(17.3 -18.8)"/><path d="m-16.8 23.25.25-1.65q2.9-1.4 4.3.35 1.45 1.75 1.8 3.65l-.3.8-.65-.1-1.25-2.9-1.1-.5-3.05.35" fill="#1e214f" fill-rule="evenodd" transform="translate(17.3 -18.8)"/><path d="m-16.8 23.25.25-1.65.8-1.75q2.4-1.25 4.65.4 1.65 1.25 2.4 3.05.75 1.75.1 2.45-.85.85-2.45 1.3-.95-.2-1.25-1.4-.75-2.65-1.45-2.75l-3.05.35Z" fill="none" stroke="#24000c" stroke-linecap="round" stroke-linejoin="round" transform="translate(17.3 -18.8)"/></g></defs></svg>

<?xml version="1.0" encoding="UTF-8" standalone="no"?>
<svg xmlns:xlink="http://www.w3.org/1999/xlink" height="65.4px" width="80.15px" xmlns="http://www.w3.org/2000/svg">
  <g transform="matrix(1.0, 0.0, 0.0, 1.0, 31.6, 13.8)">
    <use height="16.3" transform="matrix(1.0, 0.0, 0.0, 1.0, -17.3, 18.8)" width="9.5" xlink:href="#shape0"/>
  </g>
  <defs>
    <g id="shape0" transform="matrix(1.0, 0.0, 0.0, 1.0, 17.3, -18.8)">
      <path d="M-10.55 26.1 L-8.9 24.4 Q-8.55 31.25 -8.9 33.1 -9.25 34.9 -12.75 35.1 L-14.05 32.9 Q-11.4 34.4 -11.05 31.75 L-10.55 26.1" fill="#030001" fill-rule="evenodd" stroke="none"/>
      <path d="M-14.8 19.15 Q-13.7 18.6 -11.35 20.15 -9.0 21.7 -8.4 23.4 -7.35 26.45 -11.05 27.05 -11.95 27.2 -12.3 25.8 -12.85 23.75 -13.15 23.3 -13.65 22.6 -15.0 22.65 L-16.75 22.75 Q-17.05 22.7 -16.45 20.75 -16.1 19.8 -14.8 19.15" fill="#383f94" fill-rule="evenodd" stroke="none"/>
      <path d="M-16.8 23.25 L-16.55 21.6 Q-13.65 20.2 -12.25 21.95 -10.8 23.7 -10.45 25.6 L-10.75 26.4 -11.4 26.3 -12.65 23.4 -13.75 22.9 -16.8 23.25" fill="#1e214f" fill-rule="evenodd" stroke="none"/>
      <path d="M-16.8 23.25 L-16.55 21.6 -15.75 19.85 Q-13.35 18.6 -11.1 20.25 -9.45 21.5 -8.7 23.3 -7.95 25.05 -8.6 25.75 -9.45 26.6 -11.05 27.05 -12.0 26.85 -12.3 25.65 -13.05 23.0 -13.75 22.9 L-16.8 23.25 Z" fill="none" stroke="#24000c" stroke-linecap="round" stroke-linejoin="round" stroke-width="1.0"/>
    </g>
  </defs>
</svg>
